picto/escalator-down-right.svg

<svg class="color-immutable" width="24" height="24" viewBox="0 0 24 24" fill="none" xmlns="http://www.w3.org/2000/svg"><g clip-path="url(#a)"><path d="M0 22.5v-21C0 .675.675 0 1.5 0h21c.825 0 1.5.675 1.5 1.5v21c0 .825-.675 1.5-1.5 1.5h-21C.675 24 0 23.325 0 22.5Z" fill="#2D327D"/><path d="M10.907 4.978a.976.976 0 1 1 .001-1.951.976.976 0 0 1-.001 1.951ZM14.668 7.405a.976.976 0 1 1 .001-1.951.976.976 0 0 1-.001 1.951ZM18.429 7.943a.976.976 0 1 1-.001 1.951.976.976 0 0 1 .001-1.951ZM12.849 8.382a.58.58 0 1 1-1.086.414l-.699-1.834-.35.134.314.824-1.278-.841v-.636a1.14 1.14 0 0 1 2.205-.406l.894 2.345ZM16.599 10.852a.58.58 0 1 1-1.086.414l-.699-1.833-.35.134.314.824-1.278-.842v-.636a1.14 1.14 0 0 1 2.205-.406l.894 2.345ZM17.25 12.019v-.636a1.14 1.14 0 0 1 2.205-.406l.894 2.345a.58.58 0 1 1-1.086.414l-.699-1.833-.35.134.314.824-1.278-.842ZM5.625 12.75a2.626 2.626 0 0 1 0-5.25h2.996c.22 0 .435.064.619.186L21 15.432V21L8.475 12.75h-2.85Z" fill="#fff"/></g><defs><clipPath id="a"><path fill="#fff" d="M0 0h24v24H0z"/></clipPath></defs></svg>

<svg class="color-immutable" width="24" height="24" viewBox="0 0 24 24" fill="none" xmlns="http://www.w3.org/2000/svg"><path d="M0 22.5V1.5C0 0.675 0.675 0 1.5 0H22.5C23.325 0 24 0.675 24 1.5V22.5C24 23.325 23.325 24 22.5 24H1.5C0.675 24 0 23.325 0 22.5Z" fill="#2D327D"/><path d="M10.907 4.978C10.369 4.978 9.93201 4.541 9.93201 4.003C9.93201 3.465 10.369 3.028 10.907 3.028C11.445 3.028 11.882 3.465 11.882 4.003C11.882 4.541 11.446 4.978 10.907 4.978Z" fill="white"/><path d="M14.668 7.405C14.13 7.405 13.693 6.968 13.693 6.43C13.693 5.892 14.13 5.455 14.668 5.455C15.206 5.455 15.643 5.892 15.643 6.43C15.643 6.968 15.206 7.405 14.668 7.405Z" fill="white"/><path d="M18.429 7.943C18.967 7.943 19.404 8.38 19.404 8.918C19.404 9.456 18.967 9.893 18.429 9.893C17.891 9.893 17.454 9.456 17.454 8.918C17.454 8.38 17.891 7.943 18.429 7.943Z" fill="white"/><path d="M12.849 8.382C12.874 8.448 12.887 8.518 12.887 8.589C12.887 8.91 12.627 9.17 12.306 9.17C12.065 9.17 11.849 9.021 11.763 8.796L11.064 6.962L10.714 7.096L11.028 7.92L9.75 7.079V6.443C9.75 5.814 10.261 5.303 10.89 5.303C11.363 5.303 11.787 5.595 11.955 6.037L12.849 8.382Z" fill="white"/><path d="M16.599 10.852C16.624 10.918 16.637 10.988 16.637 11.059C16.637 11.38 16.377 11.64 16.056 11.64C15.815 11.64 15.599 11.491 15.513 11.266L14.814 9.433L14.464 9.567L14.778 10.391L13.5 9.549V8.913C13.5 8.284 14.011 7.773 14.64 7.773C15.113 7.773 15.537 8.065 15.705 8.507L16.599 10.852Z" fill="white"/><path d="M17.25 12.019V11.383C17.25 10.754 17.761 10.243 18.39 10.243C18.863 10.243 19.287 10.535 19.455 10.977L20.349 13.322C20.374 13.388 20.387 13.458 20.387 13.529C20.387 13.85 20.127 14.11 19.806 14.11C19.565 14.11 19.349 13.961 19.263 13.736L18.564 11.903L18.214 12.037L18.528 12.861L17.25 12.019Z" fill="white"/><path d="M5.625 12.75C4.176 12.75 3 11.574 3 10.125C3 8.676 4.176 7.5 5.625 7.5H8.621C8.841 7.5 9.056 7.564 9.24 7.686L21 15.432V21L8.475 12.75H5.625Z" fill="white"/></svg>
